icons/op-iconfont-scaler-24.svg

<svg xmlns="http://www.w3.org/2000/svg" width="1024" height="1024" viewBox="0 0 1024 1024"><path d="M730.623 170.667h-76.166c-67.702 0-122.71 52.204-122.71 116.455v184.721H397.752c-4.231 0-7.052 1.339-9.873 1.339-5.642 0-11.284-1.339-18.336-1.339h-76.166c-67.702 0-122.71 52.204-122.71 116.455v148.58c0 64.251 55.008 116.455 122.71 116.455h76.166c67.702 0 122.71-52.204 122.71-116.455v-148.58c0-13.386-2.821-25.433-7.052-37.48h46.546v135.195c0 21.417 18.336 37.48 40.903 37.48 22.568 0 40.904-16.063 40.904-37.48V550.818h23.978c5.642 0 11.283 1.339 16.925 1.339h76.166c67.702 0 122.71-52.204 122.71-116.455v-148.58c0-64.251-55.008-116.455-122.71-116.455ZM410.446 736.878c0 20.079-18.336 37.48-40.903 37.48h-76.166c-22.567 0-39.493-16.063-39.493-37.48v-148.58c0-21.417 16.926-37.48 39.493-37.48h76.166c22.567 0 40.903 16.063 40.903 37.48v148.58Zm359.67-301.176c0 21.417-16.926 37.48-39.493 37.48h-76.166c-2.821 0-5.642 0-8.463-1.339h4.232-4.232c-18.336-4.016-32.44-17.401-32.44-36.141v-148.58c0-20.079 18.336-37.48 40.903-37.48h76.166c21.157 0 39.493 16.063 39.493 37.48v148.58Z"/></svg>

<svg width="1024" height="1024" viewBox="0 0 1024 1024" fill="none" xmlns="http://www.w3.org/2000/svg">
<path d="M730.623 170.667H654.457C586.755 170.667 531.747 222.871 531.747 287.122V471.843H397.752C393.521 471.843 390.7 473.182 387.879 473.182C382.237 473.182 376.595 471.843 369.543 471.843H293.377C225.675 471.843 170.667 524.047 170.667 588.298V736.878C170.667 801.129 225.675 853.333 293.377 853.333H369.543C437.245 853.333 492.253 801.129 492.253 736.878V588.298C492.253 574.912 489.432 562.865 485.201 550.818H531.747V686.013C531.747 707.43 550.083 723.493 572.65 723.493C595.218 723.493 613.554 707.43 613.554 686.013V550.818H637.532C643.174 550.818 648.815 552.157 654.457 552.157H730.623C798.325 552.157 853.333 499.953 853.333 435.702V287.122C853.333 222.871 798.325 170.667 730.623 170.667ZM410.446 736.878C410.446 756.957 392.11 774.358 369.543 774.358H293.377C270.81 774.358 253.884 758.295 253.884 736.878V588.298C253.884 566.881 270.81 550.818 293.377 550.818H369.543C392.11 550.818 410.446 566.881 410.446 588.298V736.878ZM770.116 435.702C770.116 457.119 753.19 473.182 730.623 473.182H654.457C651.636 473.182 648.815 473.182 645.994 471.843H650.226H645.994C627.658 467.827 613.554 454.442 613.554 435.702V287.122C613.554 267.043 631.89 249.642 654.457 249.642H730.623C751.78 249.642 770.116 265.705 770.116 287.122V435.702Z" fill="black"/>
</svg>
